d1 
  $ sometimesBy 0.15 (jux rev) $ every 14 (rev . (# speed "-1")) $ stack [
    whenmod 8 6 ((# hpf "700") . (# delay 0.7)) $ "[bd:3(3,8,<1 3>)]*2" # orbit 1 # cut 3,
    sometimesBy 0.125 (striateBy "32 64" (1/16)) $ "ch!7 oh:2 ch!6 oh:2 _" # cut 1,
    "[~ sn:2]*2" # orbit 2,
    sometimesBy 0.1 ((striate "1!3 64") . (# speed "-1")) $ "<mpad0:0 mpad0:1 mpad0:2 mpad0:3>(3,8,<2 4>)" # cut 2 # orbit 2 # amp 0.3 # delay 0.8 # delayt 0.33 # delayfb 0.7
  ]

  hush
